data/yuji-boku.svg

<svg width="73.78" height="20.272" viewBox="0 0 73.78 20.272" xmlns="http://www.w3.org/2000/svg"><path transform="translate(0 16.24) scale(.014 -.014)" d="m756 663q8-26-4.5-51.5t-28.5-49.5q-5-8-9.5-15.5t-8.5-14.5q-17-33-35.5-64.5t-43.5-54.5q-7-18-19.5-37.5t-32.5-30.5q-26-49-65.5-84.5t-83.5-67.5q-12-31-15.5-70.5t-10-76.5-26.5-63q-12-5-19.5-2t-14.5 8q-4 2-8.5 4.5t-9.5 3.5q1 28 4.5 64t8 73 7.5 67q1 8 2.5 14.5t5.5 12.5q-16 21-38.5 30.5t-40.5 26.5q-53 51-90 118.5t-68.5 141-67.5 142.5q6 5 17.5 1.5t18.5-12.5q34-46 70-94t68-101q32-52 65.5-102t67.5-97q9 3 13 11.5t6 18.5q14-1 25 6t21 14q8 6 15 10.5t13 2.5q14 21 36.5 38.5t45 36.5 37.5 42q45 39 90 84.5t82 94.5q2 2 5 9 2 5 5.5 10t10.5 3z"/><path transform="translate(11.2 16.24) scale(.014 -.014)" d="m574 380q5-22 2.5-48.5t-7.5-53.5q-3-19-5.5-37.5t-2.5-36.5q0-5-2-12t-4-15q-4-16-7-30.5t5-17.5q-2-12-4.5-36.5t-6-48-10.5-34.5q-14 1-26-1.5t-14-13.5q-25 11-34.5 32.5t-10.5 49.5q-1 19 3.5 43t10.5 48q7 34 11 62.5t-6 38.5q-14-10-21-25.5t-15.5-29-27.5-18.5q-1-19-13-38.5t-28-38.5-28-38-13-38q-25-15-45-33t-53-29q-9 7-26.5 11t-27.5-3q-13 5-21 13t-21 12q-25 35-33.5 79.5t-6 91 10.5 84.5q3 13 10 23t11 23q10 28 18.5 59.5t23 57.5 41.5 34q-4-42-11.5-81.5t-14.5-76.5q-14-67-22-126t9-112q20-4 48 12.5t60 47 64 68 60 75 48 68.5 27 47q4 26 9 41t18 37q26 8 48.5-5.5t27.5-33.5q1-6 1-11t0-11q0-5-0.5-11.5t1.5-13.5z"/><path transform="translate(20.552 16.24) scale(.014 -.014)" d="m488 220q-7-15-21-23t-29-15-25-21q3-3 0-11t-7-20q-8-19-15-43.5t-1-46.5q-7-9-9-28.5t-5.5-37-14.5-21.5q-10-3-11-6.5t0-8.5q2-6-1-12.5t-27-12.5q4-13-2.5-15.5t-17.5-2.5q-12 0-26.5-3.5t-25.5-20.5q-19-11-53-15t-68.5-3.5-56.5 2.5q-16 11-23 25t-21 18q6 47 33.5 92.5t67.5 86.5 84.5 74 84 56.5 65.5 34.5q8 26 18 57t18 61q5 17 6.5 35t7.5 33 22 22q10-25 10-57.5t-4.5-63-8.5-51.5q-1-6-1.5-10.5t-1.5-8.5q13-12 31-23t28-16zm-144-79q-36-14-78-46.5t-78.5-75.5-57.5-89q15-7 27-5.5t24 4.5q9 2 17.5 4t19.5 1q18 13 37 24.5t33.5 25 16.5 31.5q19 17 24.5 53t14.5 73zm180 474q6-19 0.5-40t-19.5-34q-16-16-30-14.5t-29 6.5q-7 3-15.5 5.5t-17.5 2.5q-2 11-7 20t-6 17q-2 25 11.5 40.5t35.5 21 43-1.5q9-5 14.5-14t19.5-9z"/><path transform="translate(28.63 16.24) scale(.014 -.014)" d="m283 106q-8-19-9.5-40t5.5-32q-15-14-39.5-19.5t-49.5-7.5-44-8q-12 2-22.5 8t-21.5 11q-8 15-9 42.5t4.5 60.5 15.5 65q0 2 6.5 23t15.5 49 17 51.5 12 29.5q5 19 13.5 32t16.5 26 11 32q11 5 13 11.5t9 15.5q7-18 4.5-38t-6.5-38q-1-5-1.5-9t-1.5-8q2-6-5-29t-16-53q-9-26-17.5-53.5t-13-50.5-2.5-34q-1-8-3-23t-4-22q9-8 28-7.5t41 4.5 39 8q4 1 7.5 1.5t6.5 1.5zm74 478q-2-7-5-14t-3-18q-4 0-11-8.5t-22.5-16.5-48.5-8q-13 7-20 19t-15 22q5 44 21.5 67t60.5 9q10 1 19-9.5t16-23.5 8-19z"/><path transform="translate(37.73 16.24) scale(.014 -.014)" d="m668 299q2-16-1.5-25t-13.5-22q-4-6-16-18t-18-17q-17-13-46.5-27t-65.5-8q-1-10-1.5-20.5t-0.5-20.5q-1-33-5-62.5t-22-46.5q-19-4-33-14t-33-14q-35-7-75-11.5t-77.5 0-63.5 23.5q4 12-3.5 20t-18.5 15q-1 1-1 1 0 5 6.5 3.5t10.5 3.5q9-3 7-13 1 0 2 0 24-2 55-3.5t63 0.5 59 12q31 11 50 34t15 65q-1 8-3.5 14.5t-4.5 16.5q-9 11-23.5 10t-19.5 6q-10-3-19-6.5t-19-4.5q-3 6-9.5 7t-12.5-3q-14 1-19 13.5t-6.5 28.5-7.5 26q9 18 20 39.5t26 40 36 25.5q13 5 25.5 4t24.5-3q7-1 13.5-2t13.5-1q14-25 23-59.5t13-64.5q2-1 17 2t30.5 7 18.5 5q20 9 25.5 28t12.5 39q-10 20-13 39t-6 37-15 34q-3 4-6 8t-8 8q1 14-6.5 28.5t-16.5 29.5q-9 14-16.5 28t-4.5 28q-14 14-24.5 34t-27.5 30q-38-43-77.5-98t-64.5-111q-10-24-21.5-47t-25.5-45q3-4 1-7-1-2-2-4t0-7q-5-6-18-28.5t-27-50.5-22.5-51-4.5-30q-2-2-7-7-6-5-10.5-10.5t0.5-12.5q-10-8-13-19t-5.5-21.5-13.5-18.5q-3-1 0-6 5-6 1-8-12-5-19-16t-14.5-22.5-23.5-17.5q-2-1-3 3 0 3-2 4 0 9 1.5 15.5t3.5 12.5 3.5 12 0.5 13q3 5 11.5 23.5t17.5 42 14.5 42.5 3.5 24q29 51 54 111.5t50 121.5q11 26 22 51.5t22 50.5q4 0 10 12t13 27.5 12.5 29.5 8.5 19q6 11 27 29.5t48 34 48 16.5q6 1 21-0.5t23-3.5q17-19 29.5-46t27.5-58q17-36 38-69.5t37-69.5q16-33 27.5-69t13.5-68zm-241-67q0 9-3 31.5t-15 34.5q-6-2-18.5-11.5t-18.5-22.5 6-27q5 0 11-2.5t10-4.5q3 0 10 0 4 0 9 0t9 2z"/><path transform="translate(48.23 16.24) scale(.014 -.014)" d="m500 284q0-1-3-6-5-8-13.5-23.5t-15-32-6.5-27.5q-4 1-11-8t-12.5-18.5-5.5-13.5q-14-15-26.5-34.5t-27-36-36.5-22.5q-6-8-17-18.5t-21-7.5q-9-14-28-20t-36.5-9.5-22.5-13.5q-10 3-17 1.5t-14-3.5q-4-2-7.5-3t-8.5-2q-30 10-50 20t-32 36q3 5 1.5 12.5t-3.5 15.5q-3 10-4.5 19t4.5 13q-11 33-6.5 63.5t12.5 63.5q5 17 9 36t7 40q5 3 9 3 8 44 36.5 82t54.5 71q7 1 14 3.5t14 4.5q18 7 34 9.5t25-14.5q7 2 24.5 1t36.5-3.5 27-6.5q13-5 31-16.5t34.5-23.5 24.5-22q8-7 13-19t6-23q5 0 7-15.5t2-32-2-19.5zm-78 36q-5 3-14.5 9t-15.5 15-3 20q-8-1-12 1t-7 5q-1 1-2 1-13 11-35 16t-46.5 9-46.5 10q-30-34-52.5-89.5t-32.5-117-6-115.5q5-3 10-3.5t11 0.5q4 0 9 0t10-1q1-7 7.5-10t8.5 3q12 9 34.5 24t38.5 27q3 0 9 0 10 1 21 2t16 7q-2 2-7 3-4 1-6.5 2.5t-1.5 7.5q12 3 27.5 20t30 34.5 22.5 19.5q-1 9 3.5 16.5t10.5 15.5 10.5 16.5-2.5 17.5q10 3 11 9t0 14q-1 7 0 11zm-201 82q-3 1-3 5t-6 3q-25-35-36.5-69.5t-29.5-79.5q2-1 4-5 1-2 2.5-2.5t5.5 4.5q5 22 17 48t25 51.5 21 44.5z"/><path transform="translate(56.168 16.24) scale(.014 -.014)" d="m517 306q-14-4-28.5-29.5t-34.5-56.5-50-54q14-19 34-41.5t41-44.5 36-41q-16-17-31.5-21t-30.5 1q-17 6-38.5 23t-41.5 35.5-35 26.5q-10-11-29-28.5t-41-35-43-28.5-36-8q-10-9-31.5-10t-44 6-38 23.5-12.5 42.5q7 1 9 6.5t10 6.5q-7 17-5.5 30.5t5.5 27.5q2 9 4.5 19.5t2.5 22.5q5 0 11 19t14 48.5 19 63.5 25 65q3-1 11.5 14t19 38.5 19.5 48 13 42.5q29 44 57.5 90t61.5 86q10-1 19 2.5t18 8.5q1-10-1.5-15.5t-5.5-10.5-5.5-11.5-2.5-17.5q-2-6-9.5-25t-18-39-23.5-30q-13-34-24-58t-21-44-20-42.5-21-54.5q-2-6-4.5-11t-5.5-10q-6-13-10.5-26t-0.5-31q16 5 20 6.5t18 5.5q2 7-0.5 10.5t-5.5 6.5q-7 4-7 9 27 18 58 31.5t59 21.5q23 7 51.5 9.5t53-3 32.5-23.5q14 0 21-15.5t13-31.5zm-226-153q-14 21-35 39t-38.5 37.5-23.5 43.5q-4-1-9-8.5t-6.5-15 6.5-10.5q-17-39-27.5-75.5t-21.5-84.5q2-1 7-1 7-2 12.5-4.5t4.5-10.5q16-2 38 12t44 33 38 34q3 3 6 6t5 5zm146 160q-21 6-51.5 1.5t-59-14.5-44.5-23q7-8 18-23t24-28.5 27-19.5q13 7 24 22t23 28.5 25 13.5q-1 3 2 9t7 12q4 8 7 14.5t-2 7.5z"/><path transform="translate(64.428 16.24) scale(.014 -.014)" d="m574 380q5-22 2.5-48.5t-7.5-53.5q-3-19-5.5-37.5t-2.5-36.5q0-5-2-12t-4-15q-4-16-7-30.5t5-17.5q-2-12-4.5-36.5t-6-48-10.5-34.5q-14 1-26-1.5t-14-13.5q-25 11-34.5 32.5t-10.5 49.5q-1 19 3.5 43t10.5 48q7 34 11 62.5t-6 38.5q-14-10-21-25.5t-15.5-29-27.5-18.5q-1-19-13-38.5t-28-38.5-28-38-13-38q-25-15-45-33t-53-29q-9 7-26.5 11t-27.5-3q-13 5-21 13t-21 12q-25 35-33.5 79.5t-6 91 10.5 84.5q3 13 10 23t11 23q10 28 18.5 59.5t23 57.5 41.5 34q-4-42-11.5-81.5t-14.5-76.5q-14-67-22-126t9-112q20-4 48 12.5t60 47 64 68 60 75 48 68.5 27 47q4 26 9 41t18 37q26 8 48.5-5.5t27.5-33.5q1-6 1-11t0-11q0-5-0.5-11.5t1.5-13.5z"/></svg>

<?xml version="1.0" encoding="utf-8" ?>
<svg baseProfile="tiny" height="100%" version="1.2" width="100%" xmlns="http://www.w3.org/2000/svg" xmlns:ev="http://www.w3.org/2001/xml-events" xmlns:xlink="http://www.w3.org/1999/xlink"><defs /><g><path d="M756 663Q764 637 751.5 611.5Q739 586 723 562Q718 554 713.5 546.5Q709 539 705 532Q688 499 669.5 467.5Q651 436 626 413Q619 395 606.5 375.5Q594 356 574 345Q548 296 508.5 260.5Q469 225 425 193Q413 162 409.5 122.5Q406 83 399.5 46.0Q393 9 373 -17Q361 -22 353.5 -19.0Q346 -16 339 -11Q335 -9 330.5 -6.5Q326 -4 321 -3Q322 25 325.5 61.0Q329 97 333.5 134.0Q338 171 341 201Q342 209 343.5 215.5Q345 222 349 228Q333 249 310.5 258.5Q288 268 270 285Q217 336 180.0 403.5Q143 471 111.5 544.5Q80 618 44 687Q50 692 61.5 688.5Q73 685 80 676Q114 630 150.0 582.0Q186 534 218 481Q250 429 283.5 379.0Q317 329 351 282Q360 285 364.0 293.5Q368 302 370 312Q384 311 395.0 318.0Q406 325 416 332Q424 338 431.0 342.5Q438 347 444 345Q458 366 480.5 383.5Q503 401 525.5 420.0Q548 439 563 462Q608 501 653.0 546.5Q698 592 735 641Q737 643 740 650Q742 655 745.5 660.0Q749 665 756 663Z" transform="translate(0.0, 72) scale(0.072, -0.072)" /><path d="M574 380Q579 358 576.5 331.5Q574 305 569 278Q566 259 563.5 240.5Q561 222 561 204Q561 199 559.0 192.0Q557 185 555 177Q551 161 548.0 146.5Q545 132 553 129Q551 117 548.5 92.5Q546 68 542.5 44.5Q539 21 532 10Q518 11 506.0 8.5Q494 6 492 -5Q467 6 457.5 27.5Q448 49 447 77Q446 96 450.5 120.0Q455 144 461 168Q468 202 472.0 230.5Q476 259 466 269Q452 259 445.0 243.5Q438 228 429.5 214.5Q421 201 402 196Q401 177 389.0 157.5Q377 138 361.0 119.0Q345 100 333.0 81.0Q321 62 320 43Q295 28 275.0 10.0Q255 -8 222 -19Q213 -12 195.5 -8.0Q178 -4 168 -11Q155 -6 147.0 2.0Q139 10 126 14Q101 49 92.5 93.5Q84 138 86.5 184.5Q89 231 97 269Q100 282 107.0 292.0Q114 302 118 315Q128 343 136.5 374.5Q145 406 159.5 432.0Q174 458 201 466Q197 424 189.5 384.5Q182 345 175 308Q161 241 153.0 182.0Q145 123 162 70Q182 66 210.0 82.5Q238 99 270.0 129.5Q302 160 334.0 197.5Q366 235 394.0 272.5Q422 310 442.0 341.0Q462 372 469 388Q473 414 478.0 429.0Q483 444 496 466Q522 474 544.5 460.5Q567 447 572 427Q573 421 573.0 416.0Q573 411 573 405Q573 400 572.5 393.5Q572 387 574 380Z" transform="translate(57.599999999999994, 72) scale(0.072, -0.072)" /><path d="M488 220Q481 205 467.0 197.0Q453 189 438.0 182.0Q423 175 413 161Q416 158 413.0 150.0Q410 142 406 130Q398 111 391.0 86.5Q384 62 390 40Q383 31 381.0 11.5Q379 -8 375.5 -25.5Q372 -43 361 -47Q351 -50 350.0 -53.5Q349 -57 350 -62Q352 -68 349.0 -74.5Q346 -81 322 -87Q326 -100 319.5 -102.5Q313 -105 302 -105Q290 -105 275.5 -108.5Q261 -112 250 -129Q231 -140 197.0 -144.0Q163 -148 128.5 -147.5Q94 -147 72 -145Q56 -134 49.0 -120.0Q42 -106 28 -102Q34 -55 61.5 -9.5Q89 36 129.0 77.0Q169 118 213.5 151.0Q258 184 297.5 207.5Q337 231 363 242Q371 268 381.0 299.0Q391 330 399 360Q404 377 405.5 395.0Q407 413 413.0 428.0Q419 443 435 450Q445 425 445.0 392.5Q445 360 440.5 329.5Q436 299 432 278Q431 272 430.5 267.5Q430 263 429 259Q442 247 460.0 236.0Q478 225 488 220ZM344 141Q308 127 266.0 94.5Q224 62 187.5 19.0Q151 -24 130 -70Q145 -77 157.0 -75.5Q169 -74 181 -71Q190 -69 198.5 -67.0Q207 -65 218 -66Q236 -53 255.0 -41.5Q274 -30 288.5 -16.5Q303 -3 305 15Q324 32 329.5 68.0Q335 104 344 141ZM524 615Q530 596 524.5 575.0Q519 554 505 541Q489 525 475.0 526.5Q461 528 446 533Q439 536 430.5 538.5Q422 541 413 541Q411 552 406.0 561.0Q401 570 400 578Q398 603 411.5 618.5Q425 634 447.0 639.5Q469 645 490 638Q499 633 504.5 624.0Q510 615 524 615Z" transform="translate(105.696, 72) scale(0.072, -0.072)" /><path d="M283 106Q275 87 273.5 66.0Q272 45 279 34Q264 20 239.5 14.5Q215 9 190.0 7.0Q165 5 146 -1Q134 1 123.5 7.0Q113 13 102 18Q94 33 93.0 60.5Q92 88 97.5 121.0Q103 154 113 186Q113 188 119.5 209.0Q126 230 135.0 258.0Q144 286 152.0 309.5Q160 333 164 339Q169 358 177.5 371.0Q186 384 194.0 397.0Q202 410 205 429Q216 434 218.0 440.5Q220 447 227 456Q234 438 231.5 418.0Q229 398 225 380Q224 375 223.5 371.0Q223 367 222 363Q224 357 217.0 334.0Q210 311 201 281Q192 255 183.5 227.5Q175 200 170.5 177.0Q166 154 168 143Q167 135 165.0 120.0Q163 105 161 98Q170 90 189.0 90.5Q208 91 230.0 95.0Q252 99 269 103Q273 104 276.5 104.5Q280 105 283 106ZM357 584Q355 577 352.0 570.0Q349 563 349 552Q345 552 338.0 543.5Q331 535 315.5 527.0Q300 519 267 519Q254 526 247.0 538.0Q240 550 232 560Q237 604 253.5 627.0Q270 650 314 636Q324 637 333.0 626.5Q342 616 349.0 603.0Q356 590 357 584Z" transform="translate(147.24, 72) scale(0.072, -0.072)" /><path d="M668 299Q670 283 666.5 274.0Q663 265 653 252Q649 246 637.0 234.0Q625 222 619 217Q602 204 572.5 190.0Q543 176 507 182Q506 172 505.5 161.5Q505 151 505 141Q504 108 500.0 78.5Q496 49 478 32Q459 28 445.0 18.0Q431 8 412 4Q377 -3 337.0 -7.5Q297 -12 259.5 -7.5Q222 -3 196 16Q200 28 192.5 36.0Q185 44 174 51Q173 52 173 52Q173 57 179.5 55.5Q186 54 190 59Q199 56 197 46Q198 46 199 46Q223 44 254.0 42.5Q285 41 317.0 43.0Q349 45 376 55Q407 66 426.0 89.0Q445 112 441 154Q440 162 437.5 168.5Q435 175 433 185Q424 196 409.5 195.0Q395 194 390 201Q380 198 371.0 194.5Q362 191 352 190Q349 196 342.5 197.0Q336 198 330 194Q316 195 311.0 207.5Q306 220 304.5 236.0Q303 252 297 262Q306 280 317.0 301.5Q328 323 343.0 341.5Q358 360 379 367Q392 372 404.5 371.0Q417 370 429 368Q436 367 442.5 366.0Q449 365 456 365Q470 340 479.0 305.5Q488 271 492 241Q494 240 509.0 243.0Q524 246 539.5 250.0Q555 254 558 255Q578 264 583.5 283.0Q589 302 596 322Q586 342 583.0 361.0Q580 380 577.0 398.0Q574 416 562 432Q559 436 556.0 440.0Q553 444 548 448Q549 462 541.5 476.5Q534 491 525 506Q516 520 508.5 534.0Q501 548 504 562Q490 576 479.5 596.0Q469 616 452 626Q414 583 374.5 528.0Q335 473 310 417Q300 393 288.5 370.0Q277 347 263 325Q266 321 264 318Q263 316 262.0 314.0Q261 312 262 307Q257 301 244.0 278.5Q231 256 217.0 228.0Q203 200 194.5 177.0Q186 154 190 147Q188 145 183 140Q177 135 172.5 129.5Q168 124 173 117Q163 109 160.0 98.0Q157 87 154.5 76.5Q152 66 141 58Q138 57 141 52Q146 46 142 44Q130 39 123.0 28.0Q116 17 108.5 5.5Q101 -6 85 -12Q83 -13 82 -9Q82 -6 80 -5Q80 4 81.5 10.5Q83 17 85 23Q87 29 88.5 35.0Q90 41 89 48Q92 53 100.5 71.5Q109 90 118.0 113.5Q127 137 132.5 156.0Q138 175 136 180Q165 231 190.0 291.5Q215 352 240 413Q251 439 262.0 464.5Q273 490 284 515Q288 515 294.0 527.0Q300 539 307.0 554.5Q314 570 319.5 584.0Q325 598 328 603Q334 614 355.0 632.5Q376 651 403.0 666.5Q430 682 451 683Q457 684 472.0 682.5Q487 681 495 679Q512 660 524.5 633.0Q537 606 552 575Q569 539 590.0 505.5Q611 472 627 436Q643 403 654.5 367.0Q666 331 668 299ZM427 232Q427 241 424.0 263.5Q421 286 409 298Q403 296 390.5 286.5Q378 277 372.0 264.0Q366 251 378 237Q383 237 389.0 234.5Q395 232 399 230Q402 230 409 230Q413 230 418.0 230.0Q423 230 427 232Z" transform="translate(194.04000000000002, 72) scale(0.072, -0.072)" /><path d="M500 284Q500 283 497 278Q492 270 483.5 254.5Q475 239 468.5 222.5Q462 206 462 195Q458 196 451.0 187.0Q444 178 438.5 168.5Q433 159 433 155Q419 140 406.5 120.5Q394 101 379.5 84.5Q365 68 343 62Q337 54 326.0 43.5Q315 33 305 36Q296 22 277.0 16.0Q258 10 240.5 6.5Q223 3 218 -7Q208 -4 201.0 -5.5Q194 -7 187 -9Q183 -11 179.5 -12.0Q176 -13 171 -14Q141 -4 121.0 6.0Q101 16 89 42Q92 47 90.5 54.5Q89 62 87 70Q84 80 82.5 89.0Q81 98 87 102Q76 135 80.5 165.5Q85 196 93 229Q98 246 102.0 265.0Q106 284 109 305Q114 308 118 308Q126 352 154.5 390.0Q183 428 209 461Q216 462 223.0 464.5Q230 467 237 469Q255 476 271.0 478.5Q287 481 296 464Q303 466 320.5 465.0Q338 464 357.0 461.5Q376 459 384 455Q397 450 415.0 438.5Q433 427 449.5 415.0Q466 403 474 393Q482 386 487.0 374.0Q492 362 493 351Q498 351 500.0 335.5Q502 320 502.0 303.5Q502 287 500 284ZM422 320Q417 323 407.5 329.0Q398 335 392.0 344.0Q386 353 389 364Q381 363 377.0 365.0Q373 367 370 370Q369 371 368 371Q355 382 333.0 387.0Q311 392 286.5 396.0Q262 400 240 406Q210 372 187.5 316.5Q165 261 155.0 199.5Q145 138 149 84Q154 81 159.0 80.5Q164 80 170 81Q174 81 179.0 81.0Q184 81 189 80Q190 73 196.5 70.0Q203 67 205 73Q217 82 239.5 97.0Q262 112 278 124Q281 124 287 124Q297 125 308.0 126.0Q319 127 324 133Q322 135 317 136Q313 137 310.5 138.5Q308 140 309 146Q321 149 336.5 166.0Q352 183 366.5 200.5Q381 218 389 220Q388 229 392.5 236.5Q397 244 403 252Q409 260 413.5 268.5Q418 277 411 286Q421 289 422.0 295.0Q423 301 422 309Q421 316 422 320ZM221 402Q218 403 218 407Q218 411 212 410Q187 375 175.5 340.5Q164 306 146 261Q148 260 150 256Q151 254 152.5 253.5Q154 253 158 258Q163 280 175.0 306.0Q187 332 200.0 357.5Q213 383 221 402Z" transform="translate(248.04000000000002, 72) scale(0.072, -0.072)" /><path d="M517 306Q503 302 488.5 276.5Q474 251 454.0 220.0Q434 189 404 166Q418 147 438.0 124.5Q458 102 479.0 80.0Q500 58 515 39Q499 22 483.5 18.0Q468 14 453 19Q436 25 414.5 42.0Q393 59 373.0 77.5Q353 96 338 104Q328 93 309.0 75.5Q290 58 268.0 40.5Q246 23 225.0 12.0Q204 1 189 4Q179 -5 157.5 -6.0Q136 -7 113.5 0.0Q91 7 75.5 23.5Q60 40 63 66Q70 67 72.0 72.5Q74 78 82 79Q75 96 76.5 109.5Q78 123 82 137Q84 146 86.5 156.5Q89 167 89 179Q94 179 100.0 198.0Q106 217 114.0 246.5Q122 276 133.0 310.0Q144 344 158 375Q161 374 169.5 389.0Q178 404 188.5 427.5Q199 451 208.0 475.5Q217 500 221 518Q250 562 278.5 608.0Q307 654 340 694Q350 693 359.0 696.5Q368 700 377 705Q378 695 375.5 689.5Q373 684 370 679Q367 674 364.5 667.5Q362 661 362 650Q360 644 352.5 625.0Q345 606 334.5 586.0Q324 566 311 556Q298 522 287.0 498.0Q276 474 266.0 454.0Q256 434 246.0 411.5Q236 389 225 357Q223 351 220.5 346.0Q218 341 215 336Q209 323 204.5 310.0Q200 297 204 279Q220 284 224.0 285.5Q228 287 242 291Q244 298 241.5 301.5Q239 305 236 308Q229 312 229 317Q256 335 287.0 348.5Q318 362 346 370Q369 377 397.5 379.5Q426 382 450.5 376.5Q475 371 483 353Q497 353 504.0 337.5Q511 322 517 306ZM291 153Q277 174 256.0 192.0Q235 210 217.5 229.5Q200 249 194 273Q190 272 185.0 264.5Q180 257 178.5 249.5Q177 242 185 239Q168 200 157.5 163.5Q147 127 136 79Q138 78 143 78Q150 76 155.5 73.5Q161 71 160 63Q176 61 198.0 75.0Q220 89 242.0 108.0Q264 127 280 142Q283 145 286.0 148.0Q289 151 291 153ZM437 313Q416 319 385.5 314.5Q355 310 326.5 300.0Q298 290 282 277Q289 269 300.0 254.0Q311 239 324.0 225.5Q337 212 351 206Q364 213 375.0 228.0Q386 243 398.0 256.5Q410 270 423 270Q422 273 425.0 279.0Q428 285 432 291Q436 299 439.0 305.5Q442 312 437 313Z" transform="translate(288.86400000000003, 72) scale(0.072, -0.072)" /><path d="M574 380Q579 358 576.5 331.5Q574 305 569 278Q566 259 563.5 240.5Q561 222 561 204Q561 199 559.0 192.0Q557 185 555 177Q551 161 548.0 146.5Q545 132 553 129Q551 117 548.5 92.5Q546 68 542.5 44.5Q539 21 532 10Q518 11 506.0 8.5Q494 6 492 -5Q467 6 457.5 27.5Q448 49 447 77Q446 96 450.5 120.0Q455 144 461 168Q468 202 472.0 230.5Q476 259 466 269Q452 259 445.0 243.5Q438 228 429.5 214.5Q421 201 402 196Q401 177 389.0 157.5Q377 138 361.0 119.0Q345 100 333.0 81.0Q321 62 320 43Q295 28 275.0 10.0Q255 -8 222 -19Q213 -12 195.5 -8.0Q178 -4 168 -11Q155 -6 147.0 2.0Q139 10 126 14Q101 49 92.5 93.5Q84 138 86.5 184.5Q89 231 97 269Q100 282 107.0 292.0Q114 302 118 315Q128 343 136.5 374.5Q145 406 159.5 432.0Q174 458 201 466Q197 424 189.5 384.5Q182 345 175 308Q161 241 153.0 182.0Q145 123 162 70Q182 66 210.0 82.5Q238 99 270.0 129.5Q302 160 334.0 197.5Q366 235 394.0 272.5Q422 310 442.0 341.0Q462 372 469 388Q473 414 478.0 429.0Q483 444 496 466Q522 474 544.5 460.5Q567 447 572 427Q573 421 573.0 416.0Q573 411 573 405Q573 400 572.5 393.5Q572 387 574 380Z" transform="translate(331.34400000000005, 72) scale(0.072, -0.072)" /></g></svg>
